!!!COM: Bach, Johann Sebastian
!!!CDT: 1685/3//-1750/7/28/
!!!OTL@@DE: Herr Jesu Christ, dich zu uns wend'
!!!AGN: 4-Part Chorale
!!!SCT: BH 136
!!!SCT: BWV 332
**harm	**root	**kern	**kern	**kern	**kern
!	!	!bass	!tenor	!alto	!soprno
*	*Iorgan	*Iorgan	*Iorgan	*Iorgan	*Iorgan
*	*	*clefF4	*clefF4	*clefG2	*clefG2
*k[b-]	*k[b-]	*k[b-]	*k[b-]	*k[b-]	*k[b-]
*F:	*F:	*F:	*F:	*F:	*F:
*M4/4	*M4/4	*M4/4	*M4/4	*M4/4	*M4/4
*met(c)	*met(c)	*met(c)	*met(c)	*met(c)	*met(c)
*MM60	*MM60	*MM60	*MM60	*MM60	*MM60
I	4GG	4FF	4A	4c	4f
=1	=1	=1	=1	=1	=1
I	4GG	4FF	4c	4f	4a
Vb	4DD	4EE	4c	[4g	4cc
I	4GG	8FF	4c	8g]	4a
.	.	8AA	.	4f	.
V	4DD	4C	4c	.	4g
.	.	.	.	8e	.
=2	=2	=2	=2	=2	=2
I	4GG	8F	4c	4f	4a
.	.	8E	.	.	.
viiob/V	4CC#	4D	4d	4f	4b
V;	4DD;	4C;	4G;	4e;	4cc;
ii	4AA	8G	4B-	4g	4dd
.	.	8F	.	.	.
=3	=3	=3	=3	=3	=3
V7	4DD	4E	4c	4.g	8cc
.	.	.	.	.	8b-
I	4GG	4F	4c	.	4a
.	.	.	.	[8f	.
V7b/V	8AA	8BB	8d	8f]	4g
V7b/VI	8BB	8C#	4A	8e	.
vi	8EE	8D	.	8d	8f
Vb	8DD	8E	[8G	8c	8g
=4	=4	=4	=4	=4	=4
I	4GG	4F	8G]	4c	4a
.	.	.	4F	.	.
V	4DD	4C	.	4c	4g
.	.	.	8E	.	.
I;	4GG;	4FF;	4A;	4c;	4f;
V	4DD	4C	4c	4e	4g
!!linebreak: 2
=5	=5	=5	=5	=5	=5
I	4GG	8FF	4c	4f	4a
.	.	8GG	.	.	.
Ib	4GG	8AA	4c	4f	4a
.	.	8BB	.	.	.
V	2DD	8C	4c	4f	4g
.	.	8D	.	.	.
.	.	8E	8G	4e	4cc
.	.	8A	8c	.	.
=6	=6	=6	=6	=6	=6
vi7	4EE	8F	8A	4d	4cc
.	.	8D	8F	.	.
V/V	4AA	8G	4G	4d	4b
.	.	8GG	.	.	.
V;	4DD;	4C;	4G;	4e;	4cc;
V7/IV	4GG	8F	4F	4c	4a
.	.	8E-	.	.	.
=7	=7	=7	=7	=7	=7
IVb	4CC	8D	8F	4d	4b-
.	.	8Ey	8G	.	.
I	4GG	4F	4A	8c	4a
.	.	.	.	[8f	.
V7b/V	8AA	8BB	8d	8f]	4g
V7b/VI	8BB	8C#	8A	4e	.
vi	4EE	4D	4A	.	4f
.	.	.	.	8d	.
=8	=8	=8	=8	=8	=8
Ib	4GG	8AA	4A	4c	4f
.	.	8BB-	.	.	.
V	4DD	4C	4G	4c	4e
I;	4GG;	4FF;	4A;	4c;	4f;
==	==	==	==	==	==
*-	*-	*-	*-	*-	*-
!!chor2scor: -l 2 -s 0.6 -o %b.pmx
!!!YEC: Copyright 2003 by Craig Stuart Sapp
!!!license: GNU General Public License (http://www.gnu.org/copyleft/gpl.html)
!!!SMA: 371 Bach Chorales, edited by Ludwig Erk, C.F. Peters
!!!PDT: 1850, 1865
!!!ONB: Harmony and Root analysis done manually by Craig Sapp
